astro/public/img/icons/gaming-entertainment.svg

<?xml version="1.0" encoding="UTF-8"?>
<svg width="70px" height="70px" viewBox="0 0 70 70" version="1.1" xmlns="http://www.w3.org/2000/svg" xmlns:xlink="http://www.w3.org/1999/xlink">
    <title>gaming-entertainment</title>
    <defs>
        <linearGradient x1="0%" y1="32.4734566%" x2="100%" y2="67.5265434%" id="linearGradient-1">
            <stop stop-color="#A4AEBE" offset="0%"></stop>
            <stop stop-color="#2D53F5" offset="100%"></stop>
        </linearGradient>
    </defs>
    <g id="gaming-entertainment" stroke="none" stroke-width="1" fill="none" fill-rule="evenodd">
        <g id="003-gamepad" transform="translate(2.001084, 17.499024)" fill="url(#linearGradient-1)" fill-rule="nonzero">
            <path d="M47.6544116,0 C54.2936655,0 59.1649973,4.75479286 60.4265945,10.1175723 L64.7836669,28.6348822 C65.9659183,33.6589545 62.153356,38.4836708 56.9839817,38.4836708 C54.7846172,38.4836708 52.7181568,37.3133212 51.588472,35.4293562 L48.2331395,29.83697 C47.6588748,28.8793662 46.6095275,28.2852649 45.4937281,28.2852649 L19.5065139,28.2852649 C18.3907145,28.2852649 17.3408714,28.8793662 16.7671026,29.836474 L13.4107782,35.429852 C12.2815893,37.3133212 10.2151289,38.4836708 8.01824398,38.4836708 C2.85482061,38.4836708 -0.96765993,33.667881 0.216575089,28.6348822 L4.57315167,10.1175723 C5.74647658,5.12920556 10.3440658,0 17.3458304,0 L47.6544116,0 Z M47.6544116,3.80859503 L17.3458304,3.80859503 C13.0026436,3.80859503 9.27488204,6.76174395 8.28008489,10.9898795 L3.92350844,29.5071892 C3.3026281,32.1454347 5.3085873,34.6750757 8.01576446,34.6750757 C8.8846002,34.6750757 9.69987758,34.2133828 10.1452054,33.4705084 L13.5015298,27.8771304 C14.7591596,25.7799235 17.0601858,24.4766699 19.5065139,24.4766699 L45.4937281,24.4766699 C47.9400562,24.4766699 50.2410824,25.7799235 51.4987122,27.8776263 L54.8540447,33.4700125 C55.2998685,34.2133828 56.1151459,34.6750757 56.9815021,34.6750757 C59.6946302,34.6750757 61.6966221,32.1439469 61.0767336,29.5071892 L56.7196612,10.9898795 C55.72536,6.76174395 51.9971025,3.80859503 47.6544116,3.80859503 Z M20.261786,8.15872468 C21.3131169,8.15872468 22.1660835,9.01119539 22.1660835,10.0630222 L22.1660835,12.2380871 L24.3411484,12.2380871 C25.3929752,12.2380871 26.2454459,13.0905577 26.2454459,14.1423846 C26.2454459,15.1942114 25.3929752,16.0466821 24.3411484,16.0466821 L22.1660835,16.0466821 L22.1660835,18.2217469 C22.1660835,19.2735737 21.3131169,20.1260444 20.261786,20.1260444 C19.2099592,20.1260444 18.3574885,19.2735737 18.3574885,18.2217469 L18.3574885,16.0466821 L16.1824237,16.0466821 C15.1305969,16.0466821 14.2781262,15.1942114 14.2781262,14.1423846 C14.2781262,13.0905577 15.1305969,12.2380871 16.1824237,12.2380871 L18.3574885,12.2380871 L18.3574885,10.0630222 C18.3574885,9.01119539 19.2099592,8.15872468 20.261786,8.15872468 Z M44.738456,16.3174494 C45.7897869,16.3174494 46.6427535,17.1704159 46.6427535,18.2217469 C46.6427535,19.2735737 45.7897869,20.1260444 44.738456,20.1260444 C43.6866292,20.1260444 42.8341585,19.2735737 42.8341585,18.2217469 C42.8341585,17.1704159 43.6866292,16.3174494 44.738456,16.3174494 Z M40.6590936,12.2380871 C41.7104245,12.2380871 42.5633911,13.0905577 42.5633911,14.1423846 C42.5633911,15.1942114 41.7104245,16.0466821 40.6590936,16.0466821 C39.6072668,16.0466821 38.7547961,15.1942114 38.7547961,14.1423846 C38.7547961,13.0905577 39.6072668,12.2380871 40.6590936,12.2380871 Z M48.8178183,12.2380871 C49.8691492,12.2380871 50.7221158,13.0905577 50.7221158,14.1423846 C50.7221158,15.1942114 49.8691492,16.0466821 48.8178183,16.0466821 C47.7659915,16.0466821 46.9135208,15.1942114 46.9135208,14.1423846 C46.9135208,13.0905577 47.7659915,12.2380871 48.8178183,12.2380871 Z M44.738456,8.15872468 C45.7897869,8.15872468 46.6427535,9.01119539 46.6427535,10.0630222 C46.6427535,11.114849 45.7897869,11.9673197 44.738456,11.9673197 C43.6866292,11.9673197 42.8341585,11.114849 42.8341585,10.0630222 C42.8341585,9.01119539 43.6866292,8.15872468 44.738456,8.15872468 Z" id="Combined-Shape"></path>
        </g>
    </g>
</svg>

<svg xmlns="http://www.w3.org/2000/svg" width="70" height="70"><defs><linearGradient id="a" x1="0%" x2="100%" y1="32.473%" y2="67.527%"><stop offset="0%" stop-color="#A4AEBE"/><stop offset="100%" stop-color="#2D53F5"/></linearGradient></defs><path fill="url(#a)" d="M47.654 0c6.64 0 11.511 4.755 12.773 10.118l4.357 18.517c1.182 5.024-2.63 9.849-7.8 9.849a6.32 6.32 0 0 1-5.396-3.055l-3.355-5.592a3.21 3.21 0 0 0-2.74-1.552H19.508a3.21 3.21 0 0 0-2.74 1.551l-3.356 5.594a6.319 6.319 0 0 1-5.393 3.054c-5.163 0-8.986-4.816-7.801-9.85l4.356-18.516C5.746 5.129 10.344 0 17.346 0h30.308Zm0 3.809H17.346a9.278 9.278 0 0 0-9.066 7.18L3.924 29.508c-.621 2.638 1.385 5.168 4.092 5.168.869 0 1.684-.462 2.13-1.204l3.356-5.594a7.037 7.037 0 0 1 6.005-3.4h25.987a7.036 7.036 0 0 1 6.005 3.4l3.355 5.593a2.493 2.493 0 0 0 2.128 1.205c2.713 0 4.715-2.531 4.095-5.168L56.72 10.99a9.278 9.278 0 0 0-9.066-7.181Zm-27.392 4.35c1.051 0 1.904.852 1.904 1.904v2.175h2.175a1.904 1.904 0 1 1 0 3.809h-2.175v2.175a1.904 1.904 0 0 1-3.809 0v-2.175h-2.175a1.904 1.904 0 1 1 0-3.809h2.175v-2.175c0-1.052.853-1.904 1.905-1.904Zm24.476 8.158a1.905 1.905 0 1 1 0 3.81 1.905 1.905 0 0 1 0-3.81Zm-4.079-4.079a1.904 1.904 0 1 1 0 3.809 1.904 1.904 0 0 1 0-3.809Zm8.159 0a1.904 1.904 0 1 1 0 3.809 1.904 1.904 0 0 1 0-3.809Zm-4.08-4.08a1.904 1.904 0 1 1 0 3.81 1.904 1.904 0 0 1 0-3.81Z" transform="translate(2.001 17.499)"/></svg>
